X:1
T:Title
%%score { ( 1 3 ) | 2 }
L:1/8
Q:1/4=90
M:6/8
K:Ab
V:1 bass nm="Grand Piano"
V:3 bass 
V:2 bass 
V:1
 [A,C][G,B,D][F,_C=D] [E,=CE][K:treble][Fd][Ec] | [=DF]3 [DB]3 | cBG FGF | [CE]6 | %4
w: John~J.~Thomas * * * * *||||
 [DF][EG][FA] [FB][FA][DF] | [CE]3 [Ec]3 | [=DB][DF][DG] [DA][DG][DA] | [DB]6 | .[Ec]3 .[Bd]3 | %9
w: |||||
 [ce]3 [Ac]3 | .c3 .c3 | [Gd]6 | .[Bd]3 .[Fd]3 | [Ac]3 [ce]3 | .=d3 .d3 | [Bd]6 | .[Ec]3 .[Bd]3 | %17
w: ||||||||
 [ce]3 [Ac]3 | .c3 .c3 | [Fd]6 | .[df]3 .[Af]3 | [ce]3 [Ac]3 | [F=d]3 [G_d]3 | [Ac]6 |] %24
w: |||||||
V:2
 A,,A,,A,, A,,[A,,A,][A,,A,] | [B,,A,]3 [B,,F,]3 | [E,G,D][E,G,D][E,B,D] [E,A,D][E,B,D][E,G,D] | %3
 [A,,A,]6 | [D,A,][D,A,][D,A,] [D,D][D,D][D,A,] | [A,,A,]3 [A,,A,]3 | %6
 [B,,F,][B,,A,][B,,G,] [B,,F,][B,,B,][B,,F,] | [E,G,]6 | A,,E,[E,A,C] [E,A,C][E,A,][E,A,C] | %9
 A,,E,E, [E,A,C]E,E, | A,,[E,A,][E,A,C] [E,A,C][E,A,C][E,A,C] | B,,E,E, E,E,E, | %12
 E,,E,[E,G,D] [E,G,D][E,G,][E,G,D] | A,,E,E, [E,A,C]E,E, | B,,F,[F,B,=D] [F,B,DF][F,B,D][F,B,D] | %15
 E,,E,E, E,E,E, | A,,E,[E,A,C] [E,A,C][E,A,][E,A,C] | A,,E,E, [E,A,C]E,E, | %18
 A,,[E,A,][E,A,C] [E,A,C][E,A,C][E,A,C] | D,F,F, F,F,F, | D,F,[F,A,D] [F,A,D][F,A,][F,A,D] | %21
 A,,E,E, [E,A,C]E,E, | B,,F,F, E,,E,E, | [A,,A,]E,C, .A,,3 |] %24
V:3
 x4[K:treble] x2 | x6 | x6 | x6 | x6 | x6 | x6 | x6 | z [A,C][Gc] z C[Ac] | %9
 z [A,C][A,C] z [A,C][A,C] | E[CB][Ac] z E[Ac] | z [G,D][G,D] [G,D][G,D][G,D] | %12
 z [G,D][Bd] z D[Gd] | z [A,C][A,C] z [A,C][A,C] | c[B,=DB][A=d] z G[Ad] | %15
 z [G,D][G,D] [G,D][G,D][G,D] | z [A,C][Ac] z C[Ac] | z [A,C][A,C] z [A,C][A,C] | %18
 E[CB][Ac] z E[Ac] | z [A,D][A,D] [A,D][A,D][A,D] | z [A,D][df] z D[B=e] | %21
 z [A,C][A,C] z [A,C][A,C] | z [B,=D][B,D] z [G,_D][G,D] | x6 |] %24

